epam-assets/icon-sources/18/editor-outline.svg

<svg width="18" height="18" viewBox="0 0 18 18" fill="none" xmlns="http://www.w3.org/2000/svg">
<g id="18/editor-outline">
<path id="icon" fill-rule="evenodd" clip-rule="evenodd" d="M3.75 2.25H14.25C15.0784 2.25 15.75 2.92157 15.75 3.75V14.25C15.75 15.0784 15.0784 15.75 14.25 15.75H3.75C2.92157 15.75 2.25 15.0784 2.25 14.25V3.75C2.25 2.92157 2.92157 2.25 3.75 2.25ZM3.75 3.75V14.25H14.25V3.75H3.75Z" fill="#6C6F80"/>
</g>
</svg>

<svg xmlns="http://www.w3.org/2000/svg" width="18" height="18" fill="none" viewBox="0 0 18 18">
  <path fill="#6C6F80" fill-rule="evenodd" d="M3.75 2.25h10.5a1.5 1.5 0 0 1 1.5 1.5v10.5a1.5 1.5 0 0 1-1.5 1.5H3.75a1.5 1.5 0 0 1-1.5-1.5V3.75a1.5 1.5 0 0 1 1.5-1.5Zm0 1.5v10.5h10.5V3.75H3.75Z" clip-rule="evenodd"/>
</svg>
